X:5
T:Fitzpatrick's Jig
C:Mike Mahar
Q:1/4=140
L:1/8
M:6/8
K:D
|: AFE D2E | F2G AGF | GED =C2D | E2F GFE |
 D2E F2G | ABc d2F | E2E GFE | DEC D3 :|
|: EDE A,2C | E2F GFE | D2E F2G | A2B AGF |
 EDE A,2C | E2F GFE | D2E GFE | DEC D3 :|

